packages/kaspersky-hexa-ui-icons/src/iconsSVGs/24/Disike.svg

<svg width="24" height="24" viewBox="0 0 24 24" fill="none" xmlns="http://www.w3.org/2000/svg">
<path fill-rule="evenodd" clip-rule="evenodd" d="M9.47043 19.5753C9.17167 20.9321 10.8184 21.8486 11.8141 20.8796L17.8574 14.9984C18.0508 14.8101 18.16 14.5517 18.16 14.2818V6.094C18.16 4.98943 17.2645 4.09399 16.16 4.09399H7.6354C6.97608 4.09399 6.36952 4.45447 6.05436 5.03359L2.08595 12.3257C1.36069 13.6584 2.32539 15.2818 3.84266 15.2818H10.4158L9.47043 19.5753ZM16.16 13.8596L11.8542 18.0498L12.6366 14.4968C12.7017 14.2009 12.6292 13.8914 12.4394 13.6553C12.2496 13.4191 11.963 13.2818 11.66 13.2818H3.84266L7.75426 6.09399L16.16 6.094V13.8596Z" fill="black"/>
<path d="M20.16 14.094C20.16 14.6463 20.6077 15.094 21.16 15.094C21.7123 15.094 22.16 14.6463 22.16 14.094V5.09399C22.16 4.54171 21.7123 4.09399 21.16 4.09399C20.6077 4.09399 20.16 4.54171 20.16 5.09399V14.094Z" fill="black"/>
</svg>

<svg xmlns="http://www.w3.org/2000/svg" width="24" height="24" fill="none" viewBox="0 0 24 24"><path fill="#000" fill-rule="evenodd" d="M9.4704 19.5753c-.2987 1.3568 1.348 2.2733 2.3437 1.3043l6.0433-5.8812a1 1 0 0 0 .3026-.7166V6.094c0-1.1046-.8955-2-2-2H7.6354a1.8 1.8 0 0 0-1.581.9396L2.086 12.3257c-.7253 1.3327.2394 2.9561 1.7567 2.9561h6.5731zm6.6896-5.7157-4.3058 4.1902.7824-3.553a1 1 0 0 0-.9766-1.215H3.8427L7.7543 6.094H16.16z" clip-rule="evenodd"/><path fill="#000" d="M20.16 14.094c0 .5523.4477 1 1 1s1-.4477 1-1v-9c0-.5523-.4477-1-1-1s-1 .4477-1 1z"/></svg>
